resources/icons/20px/cube.svg

<?xml version="1.0" encoding="UTF-8"?>
<svg width="20px" height="20px" viewBox="0 0 20 20" version="1.1" xmlns="http://www.w3.org/2000/svg" xmlns:xlink="http://www.w3.org/1999/xlink">
    <!-- Generator: Sketch 52.3 (67297) - http://www.bohemiancoding.com/sketch -->
    <title>Artboard</title>
    <desc>Created with Sketch.</desc>
    <g id="Artboard" stroke="none" stroke-width="1" fill="none" fill-rule="evenodd">
        <path d="M1.95316591,4.48105238 L9.36210708,0.460859421 C9.75737765,0.246380193 10.2426223,0.246380193 10.6378929,0.460859421 L18.0468341,4.48105238 L10,9.21974356 L1.95316591,4.48105238 Z M1.13596449,5.16032441 L9.5,10.085812 L9.5,19.3674707 C9.45305089,19.3486448 9.40699872,19.3270525 9.36210708,19.3026937 L1.64782136,15.1168166 C1.24722494,14.8994475 1,14.4949166 1,14.0567952 L1,5.70675791 C1,5.51371288 1.04799771,5.32718932 1.13596449,5.16032441 Z M18.8640355,5.16032441 C18.9520023,5.32718932 19,5.51371288 19,5.70675791 L19,14.0567952 C19,14.4949166 18.7527751,14.8994475 18.3521786,15.1168166 L10.6378929,19.3026937 C10.5930013,19.3270525 10.5469491,19.3486448 10.5,19.3674707 L10.5,10.085812 L18.8640355,5.16032441 Z" id="Combined-Shape" fill="#000000" fill-rule="nonzero"></path>
    </g>
</svg>

<svg xmlns="http://www.w3.org/2000/svg" viewBox="0 0 20 20">
  <path d="m1.953 4.481 7.41-4.02c.394-.215.88-.215 1.275 0l7.409 4.02L10 9.22zm-.817.68L9.5 10.085v9.281a1 1 0 0 1-.138-.064l-7.714-4.186A1.21 1.21 0 0 1 1 14.057v-8.35c0-.193.048-.38.136-.547m17.728 0c.088.166.136.353.136.546v8.35c0 .438-.247.842-.648 1.06l-7.714 4.186q-.067.037-.138.064v-9.281z"/>
</svg>
